svgs/mindful.svg

<svg width="192" height="192" viewBox="0 0 192 192" fill="none" xmlns="http://www.w3.org/2000/svg">
<path d="M109.755 50C105.398 48.6989 100.781 48 96 48C69.4903 48 48 69.4903 48 96C48 122.51 69.4903 144 96 144C122.51 144 144 122.51 144 96C144 91.2194 143.301 86.6021 142 82.2446M107.314 84.6863C104.418 81.7909 100.418 80 96 80C87.1635 80 80 87.1634 80 96C80 104.837 87.1635 112 96 112C104.837 112 112 104.837 112 96C112 91.5817 110.209 87.5817 107.314 84.6863ZM107.314 84.6863L133.025 58.9751M117.757 25.25C110.878 23.1372 103.572 22 96 22C55.1309 22 22 55.1309 22 96C22 136.869 55.1309 170 96 170C136.869 170 170 136.869 170 96C170 88.4284 168.863 81.1224 166.75 74.2434M133.025 58.9751L133.647 43.0419C133.695 41.7951 134.131 40.5945 134.894 39.6072L141.858 30.595C144.745 26.8599 150.614 27.7664 152.239 32.1982L152.981 34.2214C153.623 35.973 155.044 37.3263 156.825 37.8827L159.341 38.6692C163.907 40.0959 165.049 46.0299 161.339 49.0494L152.544 56.2085C151.615 56.9649 150.48 57.4257 149.287 57.5316L133.025 58.9751Z" stroke="black" stroke-width="12" stroke-linecap="round" stroke-linejoin="round"/>
</svg>

<svg xmlns="http://www.w3.org/2000/svg" width="192" height="192" fill="none" viewBox="0 0 192 192"><path stroke="#000" stroke-linecap="round" stroke-linejoin="round" stroke-width="12" d="M109.755 50A48 48 0 0 0 96 48c-26.51 0-48 21.49-48 48s21.49 48 48 48 48-21.49 48-48c0-4.78-.699-9.398-2-13.755m-34.686 2.441A15.95 15.95 0 0 0 96 80c-8.836 0-16 7.163-16 16s7.163 16 16 16 16-7.163 16-16c0-4.418-1.791-8.418-4.686-11.314m0 0 25.711-25.71M117.757 25.25A74 74 0 0 0 96 22c-40.87 0-74 33.13-74 74s33.13 74 74 74 74-33.131 74-74a74 74 0 0 0-3.25-21.757m-33.725-15.268.622-15.933a6 6 0 0 1 1.247-3.435l6.964-9.012c2.887-3.735 8.756-2.829 10.381 1.603l.742 2.023a6 6 0 0 0 3.844 3.662l2.516.786c4.566 1.427 5.708 7.36 1.998 10.38l-8.795 7.16a6 6 0 0 1-3.257 1.323z"/></svg>
